X: 1
T: Larry Redican's Bow
M: 4/4
L: 1/8
R: reel
K: Dmaj
|:D2FD A,DFD| E2GE B,EGE| D2dA BAFA| GEFD EGFE |
(3DED FD A,DFD| (3EFE GE B,EGE| D2dA BAFD|1 {F}EDCE D2(3A,B,C:|2 EDCE DEFA||
~B3A ~B3c| dBBA BdcB |cAAA fAeA |ABce fcec|
~B3A ~B3c| d~B3 BABc |d2cd BAFA |1 B2ce fcec :|2 BdAG FDEF||
